X:30
T:Captive Waltz,The,2parts. JNu.31
M:3/8
L:1/16
Q:3/8=50
S:James Nuttall MS,c1830?,Rossendale,East Lancs.
R:.Waltz
O:England
A:East Lancashire
Z:vmp.Manchester Morris Men
V:1
V:2 clef=bass
K:D
[V:1] |: A>A | A4d>d | d4f>g | e2f2e2 | d2A2A>A |
[V:2] |: z2 | D,2F,2A,2 | D,2F,2A,2 | A,,2E,2A,2 | D,2F,2A,2 |
%
[V:1] A4d>d | d4f>f | e2f2e2 | d4 😐
[V:2] D,2F,2A,2 | D,2F,2A,2 | A,,2E,2A,2 | D,2z2 😐
%
[V:1] |: e>e | e2f2^g2 | a2b2c’2 | d’2c’2b2 | c’2b2a2 |
[V:2] |: z2 | E,2^G,2A,2 | E,2A,2C2 | E,2^G,2A,2 | E,2A,2C2 |
%
[V:1] e2f2^g2 | a2b2c’2 | d’2c’2b2 | a2z2 😐
[V:2] E,2^G,2A,2 | E,2A,2C2 | E,2B,2D2 | C2z2 😐

